src/images/Timoline/Tile.svg

<svg fill="none" height="120" viewBox="0 0 120 120" width="120" xmlns="http://www.w3.org/2000/svg" xmlns:xlink="http://www.w3.org/1999/xlink"><linearGradient id="a" gradientUnits="userSpaceOnUse" x1="59.9981" x2="59.9981" y1="-.000061" y2="120"><stop offset="0" stop-color="#6781ea"/><stop offset="1" stop-color="#3a4da0"/></linearGradient><clipPath id="b"><path d="m0 0h120v120h-120z"/></clipPath><mask id="c" height="120" maskUnits="userSpaceOnUse" width="120" x="0" y="0"><path d="m120 0h-120v120h120z" fill="#fff"/></mask><g clip-path="url(#b)"><g mask="url(#c)"><path d="m23.4383-.00003541h73.125c6.2157 0 23.4377.00003887 23.4377.00003887v23.43749654 73.125 23.4375s-17.222 0-23.4377 0h-73.125c-6.216 0-23.43632911 0-23.43632911 0s-.00119829-17.222-.00119829-23.4375v-73.125c0-6.216-.0007726-23.43756104-.0007726-23.43756104s17.2223.00002563 23.4383.00002563z" fill="url(#a)"/><path d="m60.0746 99.844c-2.702.0006-5.3972-.2706-8.0449-.8095-5.1049-1.0434-9.9547-3.0804-14.2735-5.9951-6.4155-4.3209-11.4394-10.4104-14.4625-17.5301-1.0209-2.4101-1.8001-4.9155-2.3265-7.4794-1.0813-5.2986-1.0813-10.7611 0-16.0598 1.0463-5.0976 3.0873-9.9389 6.0064-14.247 3.9102-5.779 9.2654-10.4336 15.5328-13.5008s13.2286-4.4401 20.1912-3.982c6.9626.458 13.684 2.7309 19.4956 6.5926 5.8116 3.8618 10.5108 9.1778 13.6304 15.4193 2.2295 4.4647 3.5936 9.3111 4.0202 14.2833h-17.8188c-.4218-2.5892-1.3029-5.0822-2.6016-7.3615-2.4265-4.2709-6.2003-7.6169-10.7309-9.5148-4.5306-1.8978-9.5625-2.2403-14.3085-.974-4.746 1.2664-8.9384 4.0702-11.9213 7.9728-2.9829 3.9027-4.5881 8.684-4.5644 13.596s1.6749 9.6776 4.6954 13.5512c3.0204 3.8737 7.2397 6.6369 11.9977 7.8574s9.7864.8294 14.2984-1.112c4.5121-1.9415 8.2534-5.3238 10.6386-9.6179 1.29-2.316 2.1512-4.8459 2.542-7.4679h17.7734c-.6403 7.4252-3.3616 14.5193-7.8516 20.4677-4.4076 5.852-10.3378 10.3811-17.1436 13.0931-2.3105.9186-4.702 1.6185-7.1432 2.0907-2.5147.4843-5.0699.728-7.6308.7277z" fill="#fff"/><path d="m76.6141 56.2791c-2.6484-9.1641-9.0051-13.8767-16.6089-13.8767-7.6039 0-15.3469 5.7216-16.9915 13.8767z" fill="#dbc772"/></g></g></svg>

<svg width="120" height="120" viewBox="0 0 120 120" fill="none" xmlns="http://www.w3.org/2000/svg">
<g clip-path="url(#clip0_253_2672)">
<mask id="mask0_253_2672" style="mask-type:luminance" maskUnits="userSpaceOnUse" x="0" y="0" width="120" height="120">
<path d="M120 0H0V120H120V0Z" fill="white"/>
</mask>
<g mask="url(#mask0_253_2672)">
<path d="M23.4383 -3.54052e-05H96.5633C102.779 -3.54052e-05 120.001 3.45707e-06 120.001 3.45707e-06C120.001 3.45707e-06 120.001 17.2215 120.001 23.4375V96.5625C120.001 102.778 120.001 120 120.001 120C120.001 120 102.779 120 96.5633 120H23.4383C17.2223 120 0.00197089 120 0.00197089 120C0.00197089 120 0.000772595 102.778 0.000772595 96.5625V23.4375C0.000772595 17.2215 0 -6.10352e-05 0 -6.10352e-05C0 -6.10352e-05 17.2223 -3.54052e-05 23.4383 -3.54052e-05Z" fill="url(#paint0_linear_253_2672)"/>
<path d="M60.0746 99.844C57.3726 99.8446 54.6774 99.5734 52.0297 99.0345C46.9248 97.9911 42.075 95.9541 37.7562 93.0394C31.3407 88.7185 26.3168 82.629 23.2937 75.5093C22.2728 73.0992 21.4936 70.5938 20.9672 68.0299C19.8859 62.7313 19.8859 57.2688 20.9672 51.9701C22.0135 46.8725 24.0545 42.0312 26.9736 37.7231C30.8838 31.9441 36.239 27.2895 42.5064 24.2223C48.7738 21.1551 55.735 19.7822 62.6976 20.2403C69.6602 20.6983 76.3816 22.9712 82.1932 26.8329C88.0048 30.6947 92.704 36.0107 95.8236 42.2522C98.0531 46.7169 99.4172 51.5633 99.8438 56.5355H82.025C81.6032 53.9463 80.7221 51.4533 79.4234 49.174C76.9969 44.9031 73.2231 41.5571 68.6925 39.6592C64.1619 37.7614 59.13 37.4189 54.384 38.6852C49.638 39.9516 45.4456 42.7554 42.4627 46.658C39.4798 50.5607 37.8746 55.342 37.8983 60.254C37.922 65.166 39.5732 69.9316 42.5937 73.8052C45.6141 77.6789 49.8334 80.4421 54.5914 81.6626C59.3494 82.8831 64.3778 82.492 68.8898 80.5506C73.4019 78.6091 77.1432 75.2268 79.5284 70.9327C80.8184 68.6167 81.6796 66.0868 82.0704 63.4648H99.8438C99.2035 70.89 96.4822 77.9841 91.9922 83.9325C87.5846 89.7845 81.6544 94.3136 74.8486 97.0256C72.5381 97.9442 70.1466 98.6441 67.7054 99.1163C65.1907 99.6006 62.6355 99.8443 60.0746 99.844Z" fill="white"/>
<path d="M76.6141 56.2791C73.9657 47.115 67.609 42.4024 60.0052 42.4024C52.4013 42.4024 44.6583 48.124 43.0137 56.2791H76.6141Z" fill="#DBC772"/>
</g>
</g>
<defs>
<linearGradient id="paint0_linear_253_2672" x1="59.9981" y1="-6.07524e-05" x2="59.9981" y2="120" gradientUnits="userSpaceOnUse">
<stop stop-color="#6781EA"/>
<stop offset="1" stop-color="#3A4DA0"/>
</linearGradient>
<clipPath id="clip0_253_2672">
<rect width="120" height="120" fill="white"/>
</clipPath>
</defs>
</svg>
